src/asset/24px/help.svg

<svg width="24" height="24" viewBox="0 0 24 24" fill="none" xmlns="http://www.w3.org/2000/svg">
    <path fill-rule="evenodd" clip-rule="evenodd" d="M12 3.99976C7.58172 3.99976 4 7.58148 4 11.9998C4 16.418 7.58172 19.9998 12 19.9998C16.4183 19.9998 20 16.418 20 11.9998C20 7.58148 16.4183 3.99976 12 3.99976ZM2 11.9998C2 6.47691 6.47715 1.99976 12 1.99976C17.5228 1.99976 22 6.47691 22 11.9998C22 17.5226 17.5228 21.9998 12 21.9998C6.47715 21.9998 2 17.5226 2 11.9998Z" fill="currentColor"/>
    <path fill-rule="evenodd" clip-rule="evenodd" d="M9.40184 9.89054C9.45965 9.92533 9.52159 9.94681 9.58483 9.95634C9.68069 9.97078 9.77954 9.95778 9.87156 9.92208C9.9557 9.88943 10.0341 9.8378 10.0993 9.77081C10.2223 9.64447 10.3552 9.53293 10.4981 9.43619L10.5009 9.43424C10.5332 9.41249 10.5659 9.39149 10.5991 9.37124C10.6024 9.36924 10.6057 9.36724 10.609 9.36525C10.6426 9.34497 10.6767 9.32545 10.7114 9.3067C10.7868 9.26486 10.8644 9.22732 10.9441 9.19407C10.9521 9.19074 10.9601 9.18744 10.9681 9.1842C11.2699 9.06216 11.6015 9.00114 11.9628 9.00114C12.0503 9.00114 12.1347 9.00477 12.2158 9.01203C12.5855 9.04511 12.8886 9.15353 13.1248 9.33726C13.2909 9.4565 13.4107 9.60106 13.4842 9.77096C13.4868 9.77708 13.4894 9.78325 13.492 9.78944C13.4969 9.80155 13.5016 9.81378 13.5061 9.82614C13.5188 9.86112 13.5297 9.89709 13.5387 9.93408C13.5448 9.9594 13.5501 9.98519 13.5546 10.0115C13.565 10.073 13.5706 10.1371 13.5716 10.2038C13.5716 10.2063 13.5716 10.2087 13.5716 10.2112C13.5717 10.2152 13.5717 10.2193 13.5717 10.2234C13.5717 10.3748 13.5457 10.5178 13.4938 10.6526C13.4549 10.7535 13.4014 10.8498 13.3333 10.9414C13.3071 10.9773 13.2781 11.0147 13.2463 11.0538C13.2437 11.0569 13.2411 11.0601 13.2385 11.0633C13.1813 11.1331 13.1153 11.2078 13.0406 11.2875C13.0265 11.3026 13.012 11.3179 12.9972 11.3334C12.888 11.4476 12.7617 11.5716 12.6182 11.7053C12.5352 11.7829 12.4557 11.8593 12.3799 11.9344C12.3703 11.9439 12.3608 11.9534 12.3513 11.9629C12.3147 11.9994 12.2789 12.0357 12.2441 12.0716C12.2363 12.0796 12.2286 12.0876 12.2209 12.0956C12.2036 12.1135 12.1866 12.1313 12.1699 12.1491C12.1601 12.1594 12.1504 12.1696 12.1408 12.1799C12.0784 12.2465 12.0191 12.312 11.9628 12.3765C11.8853 12.4652 11.8136 12.552 11.7477 12.6367C11.691 12.7097 11.6385 12.7811 11.5903 12.8511C11.572 12.8789 11.5544 12.9073 11.5376 12.9362C11.5318 12.9462 11.526 12.9562 11.5204 12.9663C11.408 13.1683 11.3303 13.3982 11.2874 13.656C11.2868 13.6597 11.2862 13.6633 11.2856 13.667C11.2505 13.8831 11.388 14.0696 11.584 14.1376C11.6353 14.1554 11.6905 14.165 11.7477 14.165H12.9972C13.0565 14.165 13.1128 14.1544 13.1655 14.1351C13.2227 14.1142 13.2757 14.0831 13.3238 14.0443C13.3349 14.0353 13.3458 14.0259 13.3564 14.0161C13.3605 14.0124 13.3645 14.0085 13.3685 14.0047C13.4605 13.9157 13.531 13.7979 13.5739 13.6733C13.6157 13.5519 13.6745 13.4408 13.7505 13.34C13.8016 13.2692 13.8617 13.1936 13.931 13.1134L13.9324 13.1118C14.0919 12.9273 14.2994 12.7182 14.5549 12.4845C14.6907 12.3587 14.8149 12.2399 14.9275 12.128L14.9288 12.1267C14.9323 12.1232 14.9359 12.1196 14.9395 12.1161C14.9958 12.0599 15.0492 12.0055 15.0997 11.9528C15.1725 11.8768 15.2393 11.8045 15.2998 11.7359C15.4984 11.5118 15.6623 11.2419 15.7914 10.9261C15.8845 10.7147 15.9465 10.4805 15.9772 10.2234C15.9924 10.0965 16 9.96411 16 9.82614C16 8.94003 15.6524 8.24744 14.9572 7.74837C14.831 7.65651 14.6972 7.5731 14.5556 7.49815C14.5289 7.48404 14.502 7.47023 14.4747 7.45671C13.8613 7.15207 13.1084 6.99976 12.216 6.99976C12.1306 6.99976 12.0462 7.00113 11.9628 7.00387C11.8556 7.0074 11.7501 7.01319 11.6463 7.02124C11.4545 7.03611 11.2683 7.05871 11.0877 7.08902C10.5963 7.17149 10.1463 7.3111 9.73774 7.50786C9.73155 7.51085 9.72536 7.51384 9.71918 7.51685C9.70723 7.52268 9.69531 7.52855 9.68343 7.53448C9.59509 7.57913 9.50901 7.62611 9.42519 7.6754C9.11898 7.85549 8.84294 8.06651 8.59705 8.30846C8.49328 8.41057 8.39488 8.5182 8.30185 8.63134C8.12303 8.8488 8.19915 9.16682 8.44038 9.31198L9.40184 9.89054ZM13.4078 15.647C13.3994 15.6387 13.391 15.6306 13.3825 15.6225C13.3567 15.5983 13.3303 15.5753 13.3032 15.5534C13.2092 15.4776 13.1072 15.4159 12.9972 15.3685C12.8137 15.2893 12.6079 15.2498 12.3799 15.2498C12.1457 15.2498 11.9349 15.2915 11.7477 15.375C11.6247 15.4298 11.5118 15.5027 11.409 15.5936L11.4076 15.5949C11.3887 15.6116 11.3702 15.629 11.352 15.647C11.0838 15.9016 10.9497 16.2224 10.9497 16.6095C10.9497 16.9965 11.0838 17.3275 11.352 17.6025C11.3736 17.6231 11.3956 17.6429 11.418 17.6619C11.4322 17.674 11.4466 17.6857 11.4611 17.6971C11.5507 17.7674 11.6462 17.8254 11.7477 17.8712C11.9375 17.9569 12.1483 17.9998 12.3799 17.9998C12.6074 17.9998 12.8131 17.9584 12.9972 17.8758C13.1032 17.8282 13.2021 17.7669 13.2937 17.6919C13.3079 17.6802 13.322 17.6683 13.3359 17.6559C13.3552 17.6388 13.3742 17.621 13.3929 17.6025C13.671 17.3275 13.8101 16.9965 13.8101 16.6095C13.8101 16.2224 13.676 15.9016 13.4078 15.647Z" fill="currentColor"/>
</svg>

<svg width="24" height="24" fill="none" xmlns="http://www.w3.org/2000/svg"><path fill-rule="evenodd" clip-rule="evenodd" d="M12 4a8 8 0 100 16 8 8 0 000-16zM2 12C2 6.477 6.477 2 12 2s10 4.477 10 10-4.477 10-10 10S2 17.523 2 12z" fill="currentColor"/><path fill-rule="evenodd" clip-rule="evenodd" d="M9.402 9.89c.058.035.12.057.183.066a.563.563 0 00.287-.034.645.645 0 00.227-.151c.123-.127.256-.238.4-.335l.002-.002a2.595 2.595 0 01.467-.25 2.63 2.63 0 01.995-.183c.087 0 .172.004.253.011.37.033.673.142.909.325a1.04 1.04 0 01.414.597 1.179 1.179 0 01.033.27v.019a1.184 1.184 0 01-.239.718 2.724 2.724 0 01-.095.122 4.53 4.53 0 01-.24.27c-.11.115-.236.239-.38.372-.083.078-.162.154-.238.23l-.029.028a9.03 9.03 0 00-.107.109l-.023.024a4.985 4.985 0 00-.08.084 7.531 7.531 0 00-.393.457c-.057.073-.11.144-.158.214a1.801 1.801 0 00-.052.085l-.018.03c-.112.202-.19.432-.233.69l-.001.011c-.035.216.102.403.298.47a.499.499 0 00.164.028h1.25c.059 0 .115-.01.168-.03a.557.557 0 00.19-.119l.012-.011a.849.849 0 00.206-.332c.042-.121.1-.232.177-.333.05-.07.11-.146.18-.227l.001-.001c.16-.185.367-.394.623-.627.136-.126.26-.245.373-.357v-.001l.011-.01a10.322 10.322 0 00.36-.381c.2-.224.363-.494.492-.81.093-.211.155-.446.186-.703A3.34 3.34 0 0016 9.826c0-.886-.348-1.579-1.043-2.078a3.322 3.322 0 00-.482-.291C13.86 7.152 13.108 7 12.216 7a7.711 7.711 0 00-.57.021 6.33 6.33 0 00-.558.068 5.003 5.003 0 00-1.405.445 4.238 4.238 0 00-1.382 1.097c-.178.218-.102.536.14.681l.96.579zm4.006 5.757a1.939 1.939 0 00-.105-.094 1.314 1.314 0 00-.306-.185 1.543 1.543 0 00-.617-.118c-.234 0-.445.041-.632.125a1.32 1.32 0 00-.339.219h-.001a1.27 1.27 0 00-.458 1.015 1.371 1.371 0 00.468 1.053 1.41 1.41 0 00.33.21c.19.085.4.128.632.128.227 0 .433-.042.617-.124a1.32 1.32 0 00.396-.274c.278-.274.417-.605.417-.992a1.27 1.27 0 00-.402-.963z" fill="currentColor"/></svg>
